icons/unity-panel/22x22/panel/onboard-panel.svg

<svg version="1.1" viewBox="0 0 22 22" xmlns="http://www.w3.org/2000/svg">
 <g fill="#fff">
  <path d="m3.8333 3c-0.46167 0-0.83333 0.37167-0.83333 0.83333v5c0 0.46167 0.37167 0.83333 0.83333 0.83333h5c0.46167 0 0.83333-0.37167 0.83333-0.83333v-5c0-0.46167-0.37167-0.83333-0.83333-0.83333zm0.83333 0.83333h3.3333c0.46167 0 0.83333 0.37167 0.83333 0.83333v3.3333c0 0.46167-0.37167 0.83333-0.83333 0.83333h-3.3333c-0.46167 0-0.83333-0.37167-0.83333-0.83333v-3.3333c0-0.46167 0.37167-0.83333 0.83333-0.83333z"/>
  <path d="m12.167 3c-0.46167 0-0.83333 0.37167-0.83333 0.83333v5c0 0.46167 0.37167 0.83333 0.83333 0.83333h5c0.46167 0 0.83333-0.37167 0.83333-0.83333v-5c0-0.46167-0.37167-0.83333-0.83333-0.83333zm0.83333 0.83333h3.3333c0.46167 0 0.83333 0.37167 0.83333 0.83333v3.3333c0 0.46167-0.37167 0.83333-0.83333 0.83333h-3.3333c-0.46167 0-0.83333-0.37167-0.83333-0.83333v-3.3333c0-0.46167 0.37167-0.83333 0.83333-0.83333z"/>
  <path d="m3.8333 11.333c-0.46167 0-0.83333 0.37167-0.83333 0.83333v5c0 0.46167 0.37167 0.83333 0.83333 0.83333h5c0.46167 0 0.83333-0.37167 0.83333-0.83333v-5c0-0.46167-0.37167-0.83333-0.83333-0.83333zm0.83333 0.83333h3.3333c0.46167 0 0.83333 0.37167 0.83333 0.83333v3.3333c0 0.46167-0.37167 0.83333-0.83333 0.83333h-3.3333c-0.46167 0-0.83333-0.37167-0.83333-0.83333v-3.3333c0-0.46167 0.37167-0.83333 0.83333-0.83333z"/>
  <path d="m12.167 11.333c-0.46167 0-0.83333 0.37167-0.83333 0.83333v5c0 0.46167 0.37167 0.83333 0.83333 0.83333h5c0.46167 0 0.83333-0.37167 0.83333-0.83333v-5c0-0.46167-0.37167-0.83333-0.83333-0.83333zm0.83333 0.83333h3.3333c0.46167 0 0.83333 0.37167 0.83333 0.83333v3.3333c0 0.46167-0.37167 0.83333-0.83333 0.83333h-3.3333c-0.46167 0-0.83333-0.37167-0.83333-0.83333v-3.3333c0-0.46167 0.37167-0.83333 0.83333-0.83333z"/>
 </g>
</svg>

<svg viewBox="0 0 22 22" xmlns="http://www.w3.org/2000/svg"><path d="M3.833 3A.832.832 0 0 0 3 3.833v5c0 .462.372.834.833.834h5a.832.832 0 0 0 .834-.834v-5A.832.832 0 0 0 8.833 3zm.834.833H8c.462 0 .833.372.833.834V8A.832.832 0 0 1 8 8.833H4.667A.832.832 0 0 1 3.833 8V4.667c0-.462.372-.834.834-.834zm7.5-.833a.832.832 0 0 0-.833.833v5c0 .462.371.834.833.834h5A.832.832 0 0 0 18 8.833v-5A.832.832 0 0 0 17.167 3zm.833.833h3.334c.461 0 .833.372.833.834V8a.832.832 0 0 1-.833.833H13A.832.832 0 0 1 12.167 8V4.667c0-.462.372-.834.833-.834zm-9.167 7.5a.832.832 0 0 0-.833.833v5c0 .462.372.834.833.834h5a.832.832 0 0 0 .834-.834v-5a.832.832 0 0 0-.834-.833zm.834.833H8c.462 0 .833.372.833.834v3.333a.832.832 0 0 1-.833.833H4.667a.832.832 0 0 1-.834-.833V13c0-.462.372-.834.834-.834zm7.5-.833a.832.832 0 0 0-.833.833v5c0 .462.371.834.833.834h5a.832.832 0 0 0 .833-.834v-5a.832.832 0 0 0-.833-.833zm.833.833h3.334c.461 0 .833.372.833.834v3.333a.832.832 0 0 1-.833.833H13a.832.832 0 0 1-.833-.833V13c0-.462.372-.834.833-.834z" fill="#fff"/></svg>
